; generated by PrusaSlicer 2.9.4 on 2026-05-12 at 19:14:52 UTC


;
;

;
;
; 

; external perimeters extrusion width = 0.45mm
; perimeters extrusion width = 0.45mm
; infill extrusion width = 0.45mm
; solid infill extrusion width = 0.45mm
; top infill extrusion width = 0.40mm
; first layer extrusion width = 0.42mm

M73 P0 R32
M201 X1250 Y1250 Z400 E5000 ; sets maximum accelerations, mm/sec^2
M203 X180 Y180 Z12 E80 ; sets maximum feedrates, mm / sec
M204 S1250 T1250 ; sets acceleration (S) and retract acceleration (R), mm/sec^2
M205 X8.00 Y8.00 Z2.00 E10.00 ; sets the jerk limits, mm/sec
M205 S0 T0 ; sets the minimum extruding and travel feed rate, mm/sec

; printing object tether.stl id:0 copy 0
; stop printing object tether.stl id:0 copy 0

;TYPE:Custom
G90 ; use absolute coordinates
M83 ; extruder relative mode
M104 S170 ; set extruder temp for bed leveling
M140 S60 ; set bed temp
M109 R170 ; wait for bed leveling temp
M190 S60 ; wait for bed temp
G28 ; home all without mesh bed level
G29 ; mesh bed leveling 
M104 S215 ; set extruder temp
G92 E0.0
G1 Y-2.0 X179 F2400
G1 Z3 F720
M109 S215 ; wait for extruder temp

; intro line
G1 X170 F1000
G1 Z0.2 F720
G1 X110.0 E8.0 F900
G1 X40.0 E10.0 F700
G92 E0.0

M221 S95 ; set flow
G21 ; set units to millimeters
G90 ; use absolute coordinates
M83 ; use relative distances for extrusion

M900 K0.2 ; Filament gcode LA 1.5
; ; Filament gcode LA 1.0




M107
;LAYER_CHANGE
;Z:0.2
;HEIGHT:0.2
G1 E-3.2 F4200
G1 Z.4 F9000
G1 X69.177 Y68.834
G1 Z.2
G1 E3.2 F2400
M204 S800
;TYPE:Skirt/Brim
;WIDTH:0.42
G1 F1200
G1 X70.939 Y67.08 E.07795
G1 X72.898 Y65.451 E.07988
G1 X74.916 Y64.054 E.07696
G1 X75.969 Y63.423 E.03849
G1 X78.064 Y62.339 E.07396
G1 X80.332 Y61.402 E.07694
G1 X82.765 Y60.64 E.07994
G1 X85.162 Y60.116 E.07693
G1 X87.596 Y59.802 E.07695
G1 X88.82 Y59.724 E.03846
G1 X91.148 Y59.724 E.07299
G1 X93.625 Y59.933 E.07794
G1 X96.135 Y60.373 E.0799
G1 X98.505 Y61.008 E.07693
G1 X99.668 Y61.402 E.0385
G1 X101.849 Y62.3 E.07395
G1 X104.031 Y63.423 E.07694
G1 X106.186 Y64.785 E.07993
G1 X108.136 Y66.274 E.07693
G1 X109.061 Y67.08 E.03847
G1 X110.737 Y68.741 E.07398
G1 X112.386 Y70.684 E.0799
G1 X113.802 Y72.688 E.07694
G1 X115.039 Y74.808 E.07696
G1 X115.588 Y75.906 E.03849
G1 X116.506 Y78.079 E.07396
G1 X117.266 Y80.412 E.07693
G1 X117.838 Y82.896 E.07992
G1 X118.034 Y84.107 E.03846
G1 X118.261 Y86.455 E.07396
G1 X118.285 Y89.004 E.07993
M73 P1 R32
G1 X118.092 Y91.45 E.07693
G1 X117.688 Y93.871 E.07696
G1 X117.076 Y96.247 E.07693
G1 X116.26 Y98.561 E.07693
G1 X115.247 Y100.796 E.07694
G1 X114.043 Y102.935 E.07696
G1 X113.373 Y103.963 E.03847
G1 X111.983 Y105.829 E.07296
G1 X110.334 Y107.69 E.07796
G1 X109.393 Y108.618 E.04144
G1 X107.569 Y110.194 E.07558
G1 X96.928 Y118.591 E.42501
G1 X96 Y119.223 E.0352
G1 X94.806 Y119.773 E.04122
G1 X93.319 Y120.131 E.04796
G1 X90.653 Y120.299 E.08376
G1 X88.209 Y120.256 E.07664
G1 X86.608 Y120.121 E.05038
G1 X85.501 Y119.874 E.03556
G1 X84.361 Y119.417 E.03851
G1 X83.317 Y118.779 E.03836
G1 X71.519 Y109.439 E.4718
G1 X69.732 Y107.758 E.07692
G1 X68.037 Y105.855 E.0799
G1 X66.573 Y103.885 E.07696
G1 X65.285 Y101.796 E.07695
G1 X64.184 Y99.603 E.07694
G1 X63.705 Y98.473 E.03848
G1 X62.924 Y96.247 E.07397
G1 X62.312 Y93.871 E.07693
G1 X61.908 Y91.45 E.07696
G1 X61.715 Y89.004 E.07693
G1 X61.734 Y86.55 E.07695
G1 X61.966 Y84.107 E.07694
G1 X62.43 Y81.601 E.07991
G1 X62.734 Y80.412 E.03848
G1 X63.461 Y78.168 E.07396
G1 X64.412 Y75.906 E.07694
G1 X65.604 Y73.653 E.07992
G1 X66.939 Y71.594 E.07694
G1 X67.672 Y70.609 E.0385
G1 X69.138 Y68.88 E.07108
M204 S1250
G1 E-2.24 F4200
;WIPE_START
G1 F7200
G1 X69.177 Y68.834 E-.03342
G1 X70.362 Y67.655 E-.92658
;WIPE_END
G1 Z.4 F9000
; printing object tether.stl id:0 copy 0
G1 X84.804 Y112.875
G1 Z.2
G1 E3.2 F2400
M204 S800
;TYPE:External perimeter
;WIDTH:0.419999
G1 F1200
G1 X84.803 Y112.873 E.00007
G1 X83.565 Y112.585 E.03985
G1 X82.504 Y112.281 E.03461
;WIDTH:0.439595
G1 X81.993 Y112.101 E.01787
;WIDTH:0.459783
G1 X81.784 Y112.033 E.00762
G1 X81.141 Y111.707 E.02499
;WIDTH:0.420553
G1 X80.255 Y111.286 E.0308
;WIDTH:0.426805
G1 X78.509 Y110.461 E.06164
;WIDTH:0.424236
G1 X77.545 Y109.94 E.03474
;WIDTH:0.41837
G1 X76.915 Y109.568 E.02284
;WIDTH:0.426572
G1 X75.691 Y108.78 E.04644
;WIDTH:0.424239
G1 X74.803 Y108.137 E.03476
;WIDTH:0.4208
G1 X74.05 Y107.546 E.03008
;WIDTH:0.424264
G1 X73.114 Y106.746 E.03904
G1 X72.318 Y105.995 E.0347
;WIDTH:0.420805
G1 X71.65 Y105.312 E.03002
;WIDTH:0.424265
G1 X70.824 Y104.395 E.03913
G1 X70.131 Y103.548 E.0347
G1 X69.78 Y103.083 E.01847
G1 X69.476 Y102.672 E.01621
G1 X68.859 Y101.767 E.03473
G1 X68.282 Y100.837 E.0347
G1 X67.745 Y99.883 E.03471
G1 X67.251 Y98.907 E.03469
G1 X66.799 Y97.91 E.03471
G1 X66.391 Y96.894 E.03472
G1 X66.196 Y96.349 E.01835
G1 X66.028 Y95.862 E.01634
G1 X65.71 Y94.815 E.0347
G1 X65.437 Y93.755 E.03471
G1 X65.211 Y92.684 E.03471
G1 X65.031 Y91.604 E.03472
G1 X64.898 Y90.518 E.03469
G1 X64.813 Y89.426 E.03473
G1 X64.79 Y88.853 E.01818
G1 X64.775 Y88.333 E.0165
G1 X64.784 Y87.238 E.03472
G1 X64.841 Y86.145 E.0347
;WIDTH:0.426851
G1 X64.992 Y84.692 E.04664
;WIDTH:0.420929
G1 X65.098 Y83.971 E.02291
;WIDTH:0.418481
G1 X65.227 Y83.251 E.02284
;WIDTH:0.426664
G1 X65.539 Y81.83 E.04642
;WIDTH:0.424266
G1 X65.831 Y80.773 E.03477
G1 X66.167 Y79.732 E.03469
G1 X66.362 Y79.197 E.01806
G1 X66.548 Y78.706 E.01665
G1 X66.974 Y77.697 E.03473
G1 X67.442 Y76.708 E.03469
;WIDTH:0.426828
G1 X68.135 Y75.422 E.04663
;WIDTH:0.420964
G1 X68.508 Y74.796 E.02291
;WIDTH:0.418503
G1 X68.899 Y74.182 E.02273
;WIDTH:0.426711
G1 X69.731 Y72.984 E.04655
;WIDTH:0.424268
G1 X70.402 Y72.117 E.03476
G1 X71.11 Y71.282 E.03471
G1 X71.49 Y70.867 E.01784
G1 X71.853 Y70.479 E.01685
G1 X72.63 Y69.708 E.03471
G1 X73.44 Y68.972 E.0347
;WIDTH:0.426801
G1 X74.57 Y68.046 E.04663
;WIDTH:0.421055
G1 X75.153 Y67.609 E.02291
;WIDTH:0.418541
G1 X75.749 Y67.19 E.02275
;WIDTH:0.42674
G1 X76.973 Y66.399 E.04651
;WIDTH:0.424268
G1 X77.924 Y65.853 E.03477
G1 X78.897 Y65.35 E.03473
G1 X79.89 Y64.89 E.0347
G1 X80.902 Y64.473 E.03471
;WIDTH:0.426746
G1 X82.277 Y63.99 E.04651
;WIDTH:0.420641
G1 X82.814 Y63.822 E.01767
;WIDTH:0.423416
G1 X83.511 Y63.626 E.02291
;WIDTH:0.426694
G1 X85.095 Y63.257 E.0519
;WIDTH:0.424309
G1 X86.18 Y63.066 E.03494
G1 X86.728 Y62.991 E.01754
G1 X87.265 Y62.924 E.01716
G1 X88.355 Y62.829 E.0347
;WIDTH:0.426723
G1 X89.812 Y62.78 E.04652
;WIDTH:0.420534
G1 X90.401 Y62.78 E.01849
;WIDTH:0.423355
G1 X91.094 Y62.801 E.02193
;WIDTH:0.424364
G1 X92.188 Y62.873 E.03477
;WIDTH:0.426762
G1 X93.811 Y63.065 E.05216
;WIDTH:0.424257
G1 X94.886 Y63.253 E.0346
G1 X95.959 Y63.489 E.03484
G1 X97.017 Y63.771 E.03472
G1 X98.062 Y64.098 E.03472
;WIDTH:0.41891
G1 X99.09 Y64.472 E.0342
;WIDTH:0.424247
G1 X100.103 Y64.887 E.03471
;WIDTH:0.426713
G1 X101.422 Y65.511 E.04657
;WIDTH:0.421086
G1 X102.069 Y65.85 E.02297
;WIDTH:0.42338
G1 X102.543 Y66.116 E.01719
;WIDTH:0.426792
G1 X103.942 Y66.978 E.05245
;WIDTH:0.424273
G1 X104.842 Y67.603 E.03475
;WIDTH:0.418926
G1 X105.712 Y68.267 E.03422
;WIDTH:0.424248
G1 X106.554 Y68.966 E.0347
;WIDTH:0.426702
G1 X107.627 Y69.957 E.04661
;WIDTH:0.421133
G1 X108.142 Y70.473 E.02293
;WIDTH:0.423388
G1 X108.512 Y70.866 E.01708
;WIDTH:0.426813
G1 X109.591 Y72.11 E.05257
;WIDTH:0.424267
G1 X110.264 Y72.976 E.03478
G1 X110.577 Y73.413 E.01704
G1 X110.896 Y73.869 E.01765
G1 X111.49 Y74.788 E.0347
;WIDTH:0.418946
G1 X112.041 Y75.734 E.03423
;WIDTH:0.424246
G1 X112.554 Y76.701 E.03471
;WIDTH:0.426723
G1 X113.169 Y78.025 E.04659
;WIDTH:0.421161
G1 X113.449 Y78.699 E.02295
;WIDTH:0.423399
G1 X113.639 Y79.198 E.01689
;WIDTH:0.426835
G1 X114.166 Y80.764 E.05275
;WIDTH:0.424265
G1 X114.458 Y81.82 E.03474
G1 X114.58 Y82.338 E.01687
G1 X114.703 Y82.887 E.01784
G1 X114.908 Y83.997 E.03579
;WIDTH:0.421546
G1 X115.092 Y85.408 E.0448
;WIDTH:0.421248
G1 X115.181 Y86.501 E.0345
G1 X115.216 Y87.231 E.02299
;WIDTH:0.423386
G1 X115.225 Y87.76 E.01674
;WIDTH:0.426858
G1 X115.188 Y89.416 E.05288
;WIDTH:0.424263
G1 X115.103 Y90.51 E.03479
G1 X114.97 Y91.596 E.03469
G1 X114.791 Y92.676 E.03471
G1 X114.565 Y93.747 E.03471
G1 X114.293 Y94.807 E.0347
G1 X113.975 Y95.854 E.0347
G1 X113.611 Y96.887 E.03473
G1 X113.204 Y97.902 E.03468
G1 X112.991 Y98.38 E.01659
G1 X112.753 Y98.9 E.01813
G1 X112.259 Y99.876 E.03469
G1 X111.723 Y100.83 E.0347
G1 X111.146 Y101.761 E.03473
G1 X110.529 Y102.665 E.0347
G1 X109.874 Y103.542 E.03471
G1 X109.181 Y104.389 E.0347
G1 X108.452 Y105.206 E.03472
G1 X107.686 Y105.992 E.0348
;WIDTH:0.418995
G1 X106.891 Y106.739 E.03411
;WIDTH:0.424237
G1 X106.063 Y107.455 E.03471
G1 X105.66 Y107.777 E.01636
G1 X105.204 Y108.134 E.01836
G1 X104.291 Y108.793 E.0357
;WIDTH:0.421405
G1 X103.092 Y109.565 E.04488
;WIDTH:0.420509
G1 X102.462 Y109.937 E.02297
;WIDTH:0.424255
G1 X101.5 Y110.457 E.03467
;WIDTH:0.426806
G1 X99.745 Y111.286 E.06196
;WIDTH:0.419443
G1 X98.894 Y111.69 E.02949
;WIDTH:0.443451
G1 X98.299 Y111.985 E.02212
G1 X97.509 Y112.276 E.02804
;WIDTH:0.419999
G1 X96.444 Y112.582 E.03474
G1 X95.197 Y112.873 E.04015
G1 X93.315 Y116.433 E.12626
;WIDTH:0.428391
G1 X93.019 Y116.744 E.01376
;WIDTH:0.456441
G1 X92.719 Y116.866 E.01114
G1 X92.116 Y116.917 E.02081
;WIDTH:0.456294
G1 X91.062 Y116.976 E.03629
;WIDTH:0.461258
G1 X90.004 Y116.996 E.03681
G1 X88.945 Y116.976 E.03684
G1 X87.27 Y116.866 E.05839
;WIDTH:0.460208
G1 X86.927 Y116.706 E.01313
;WIDTH:0.419999
G1 X86.685 Y116.433 E.01144
G1 X84.832 Y112.928 E.12431
M204 S1250
G1 E-2.24 F4200
;WIPE_START
G1 F7200
G1 X84.804 Y112.875 E-.03322
G1 X84.803 Y112.873 E-.00124
G1 X83.565 Y112.585 E-.70438
G1 X83.182 Y112.475 E-.22116
;WIPE_END
G1 Z.4 F9000
G1 X94.413 Y115.942
G1 Z.2
G1 E3.2 F2400
M204 S800
;TYPE:Perimeter
;WIDTH:0.393378
G1 F1200
G1 X94.64 Y115.512 E.01417
;WIDTH:0.43248
G1 X95.072 Y114.736 E.02877
;WIDTH:0.475758
G1 X95.724 Y113.554 E.04858
;WIDTH:0.476681
G1 X96.359 Y113.406 E.02352
G1 X96.04 Y113.877 E.02052
;WIDTH:0.475758
G1 X95.41 Y114.93 E.04416
;WIDTH:0.43248
G1 X95.137 Y115.317 E.01534
;WIDTH:0.393378
G1 X94.815 Y115.641 E.01331
G1 X94.461 Y115.906 E.01289
M204 S1250
G1 X93.641 Y116.622 F9000
M204 S800
;WIDTH:0.419999
G1 F1200
G1 X93.649 Y116.609 E.00048
G1 X95.45 Y113.201 E.12086
G1 X96.548 Y112.945 E.03535
G1 X97.522 Y112.665 E.03178
G1 X97.416 Y112.764 E.00455
G1 X96.755 Y113.544 E.03206
G1 X96.384 Y114.091 E.02072
G1 X95.72 Y115.158 E.0394
G1 X95.404 Y115.566 E.01618
G1 X95.048 Y115.923 E.01581
G1 X94.514 Y116.32 E.02086
G1 X94.061 Y116.568 E.01619
G1 X93.571 Y116.728 E.01616
G1 X93.608 Y116.672 E.0021
M204 S1250
G1 E-2.24 F4200
;WIPE_START
G1 F7200
G1 X93.641 Y116.622 E-.0332
G1 X93.649 Y116.609 E-.00846
G1 X94.423 Y115.144 E-.91834
;WIPE_END
G1 Z.4 F9000
G1 X85.557 Y115.905
G1 Z.2
G1 E3.2 F2400
M204 S800
;WIDTH:0.412496
G1 F1200
G1 X85.33 Y115.751 E.00843
G1 X84.769 Y115.188 E.02442
;WIDTH:0.43206
G1 X84.596 Y114.941 E.00976
;WIDTH:0.475769
G1 X83.949 Y113.859 E.04537
;WIDTH:0.476691
G1 X83.641 Y113.406 E.01976
G1 X84.278 Y113.554 E.02359
G1 X84.335 Y113.662 E.0044
;WIDTH:0.475769
G1 X84.934 Y114.747 E.04461
;WIDTH:0.43206
G1 X85.063 Y114.971 E.00836
;WIDTH:0.412496
G1 X85.529 Y115.852 E.03063
M204 S1250
G1 X86.404 Y116.656 F9000
M204 S800
;WIDTH:0.419999
G1 F1200
G1 X86.463 Y116.76 E.00375
G1 X86.269 Y116.703 E.00634
G1 X85.647 Y116.418 E.02145
G1 X85.091 Y116.039 E.0211
G1 X84.504 Y115.451 E.02605
G1 X84.271 Y115.143 E.01211
G1 X83.61 Y114.081 E.03922
G1 X83.216 Y113.505 E.02188
G1 X82.811 Y113.009 E.02008
G1 X82.451 Y112.657 E.01579
G1 X83.48 Y112.952 E.03356
G1 X84.55 Y113.201 E.03445
G1 X86.045 Y116.03 E.10033
G1 X86.374 Y116.604 E.02074
M204 S1250
G1 X86.213 Y117.08 F9000
M204 S800
;TYPE:External perimeter
G1 F1200
G1 X86.137 Y117.058 E.00248
G1 X85.461 Y116.748 E.02332
G1 X84.849 Y116.331 E.02322
G1 X84.237 Y115.718 E.02716
G1 X83.951 Y115.342 E.01481
G1 X83.294 Y114.286 E.039
G1 X82.85 Y113.653 E.02424
G1 X82.503 Y113.23 E.01715
;WIDTH:0.42957
G1 X81.813 Y112.562 E.03088
;WIDTH:0.459783
G1 X81.585 Y112.399 E.00971
G1 X80.944 Y112.03 E.02564
;WIDTH:0.419443
G1 X80.09 Y111.621 E.02965
;WIDTH:0.426805
G1 X78.794 Y111.026 E.04552
G1 X78.325 Y110.789 E.01677
;WIDTH:0.424236
G1 X77.35 Y110.258 E.0352
;WIDTH:0.42333
G1 X76.523 Y109.771 E.03036
;WIDTH:0.426572
G1 X75.467 Y109.081 E.04024
;WIDTH:0.424239
G1 X74.567 Y108.426 E.03529
;WIDTH:0.419035
G1 X73.693 Y107.742 E.03471
;WIDTH:0.424238
G1 X72.854 Y107.016 E.03518
G1 X72.047 Y106.25 E.03528
;WIDTH:0.419024
G1 X71.269 Y105.459 E.0347
;WIDTH:0.424265
G1 X70.875 Y105.029 E.01849
G1 X70.155 Y104.183 E.03523
G1 X69.472 Y103.308 E.0352
G1 X68.828 Y102.404 E.03519
G1 X68.223 Y101.472 E.03523
G1 X67.66 Y100.515 E.03521
G1 X67.138 Y99.535 E.03521
G1 X66.907 Y99.058 E.01681
G1 X66.66 Y98.533 E.0184
G1 X66.225 Y97.511 E.03522
G1 X65.835 Y96.472 E.03519
G1 X65.491 Y95.416 E.03522
G1 X65.193 Y94.347 E.03519
G1 X65.069 Y93.828 E.01692
G1 X64.941 Y93.266 E.01828
G1 X64.736 Y92.174 E.03523
G1 X64.579 Y91.075 E.0352
G1 X64.47 Y89.97 E.03521
G1 X64.409 Y88.861 E.03522
G1 X64.395 Y87.751 E.0352
G1 X64.43 Y86.642 E.03518
G1 X64.468 Y86.101 E.0172
M73 P2 R32
;WIDTH:0.426851
G1 X64.515 Y85.534 E.01816
G1 X64.643 Y84.437 E.03526
;WIDTH:0.423383
G1 X64.732 Y83.899 E.01725
;WIDTH:0.423117
G1 X64.896 Y82.972 E.02976
;WIDTH:0.426664
G1 X65.179 Y81.725 E.0408
;WIDTH:0.424268
G1 X65.322 Y81.173 E.01808
G1 X65.641 Y80.109 E.03522
G1 X66.006 Y79.061 E.03519
G1 X66.417 Y78.029 E.03522
G1 X66.871 Y77.016 E.0352
G1 X67.114 Y76.526 E.01734
;WIDTH:0.426828
G1 X67.37 Y76.024 E.01799
G1 X67.907 Y75.058 E.03528
;WIDTH:0.423373
G1 X68.196 Y74.59 E.0174
;WIDTH:0.423093
G1 X68.698 Y73.8 E.02959
;WIDTH:0.426711
G1 X69.437 Y72.749 E.041
;WIDTH:0.42427
G1 X69.776 Y72.297 E.01792
G1 X70.476 Y71.436 E.03519
G1 X71.213 Y70.605 E.03522
G1 X71.985 Y69.807 E.03521
G1 X72.79 Y69.043 E.03519
G1 X73.205 Y68.678 E.01752
;WIDTH:0.426801
G1 X73.629 Y68.315 E.01782
G1 X74.493 Y67.626 E.03527
;WIDTH:0.423361
G1 X74.943 Y67.3 E.01758
;WIDTH:0.423022
G1 X75.703 Y66.764 E.02939
;WIDTH:0.42674
G1 X76.792 Y66.07 E.04121
;WIDTH:0.424268
G1 X77.756 Y65.518 E.03522
G1 X78.742 Y65.008 E.0352
G1 X79.75 Y64.541 E.03523
G1 X80.781 Y64.117 E.03535
;WIDTH:0.426746
G1 X81.298 Y63.922 E.01763
G1 X82.171 Y63.632 E.02936
;WIDTH:0.418911
G1 X82.881 Y63.409 E.02327
;WIDTH:0.421139
G1 X83.601 Y63.211 E.02348
;WIDTH:0.426694
G1 X85.036 Y62.886 E.04695
;WIDTH:0.42427
G1 X85.585 Y62.781 E.01772
G1 X86.682 Y62.613 E.03519
G1 X87.786 Y62.493 E.03521
G1 X88.347 Y62.453 E.01783
;WIDTH:0.426723
G1 X88.894 Y62.422 E.01748
G1 X89.818 Y62.407 E.02949
;WIDTH:0.419029
G1 X90.563 Y62.405 E.0233
;WIDTH:0.421066
G1 X91.306 Y62.432 E.02338
G1 X92.416 Y62.513 E.03499
;WIDTH:0.426762
G1 X93.881 Y62.696 E.04712
;WIDTH:0.424273
G1 X94.971 Y62.887 E.03509
G1 X96.06 Y63.127 E.03536
G1 X97.133 Y63.414 E.03522
G1 X98.358 Y63.802 E.04075
;WIDTH:0.42092
G1 X99.234 Y64.128 E.02938
;WIDTH:0.424247
G1 X100.268 Y64.549 E.0354
;WIDTH:0.426713
G1 X101.76 Y65.257 E.0527
;WIDTH:0.423353
G1 X102.258 Y65.525 E.01789
;WIDTH:0.421025
G1 X102.908 Y65.891 E.02345
;WIDTH:0.426792
G1 X104.161 Y66.673 E.04714
;WIDTH:0.424273
G1 X105.21 Y67.407 E.0406
;WIDTH:0.420903
G1 X105.952 Y67.982 E.0295
;WIDTH:0.424248
G1 X106.812 Y68.693 E.03538
;WIDTH:0.426702
G1 X108.022 Y69.812 E.05259
;WIDTH:0.423341
G1 X108.419 Y70.22 E.01801
;WIDTH:0.420997
G1 X108.931 Y70.764 E.02349
;WIDTH:0.426813
G1 X109.892 Y71.884 E.04711
;WIDTH:0.424271
G1 X110.229 Y72.304 E.01708
G1 X110.89 Y73.196 E.0352
G1 X111.513 Y74.115 E.03521
G1 X111.902 Y74.742 E.0234
;WIDTH:0.420882
G1 X112.372 Y75.561 E.02968
;WIDTH:0.424246
G1 X112.897 Y76.547 E.03542
;WIDTH:0.426723
G1 X113.587 Y78.036 E.05237
;WIDTH:0.423308
G1 X113.802 Y78.57 E.01821
;WIDTH:0.420963
G1 X114.068 Y79.268 E.02348
;WIDTH:0.426835
G1 X114.53 Y80.669 E.04709
;WIDTH:0.42427
G1 X114.68 Y81.181 E.01692
G1 X114.953 Y82.257 E.0352
G1 X115.178 Y83.344 E.0352
G1 X115.3 Y84.072 E.02341
;WIDTH:0.421546
G1 X115.484 Y85.501 E.04536
;WIDTH:0.423386
G1 X115.571 Y86.65 E.03645
G1 X115.604 Y87.976 E.04196
;WIDTH:0.426858
G1 X115.562 Y89.451 E.04711
