; generated by PrusaSlicer 2.9.4 on 2026-05-12 at 16:51:31 UTC


;
;

;
;
; 

; external perimeters extrusion width = 0.45mm
; perimeters extrusion width = 0.45mm
; infill extrusion width = 0.45mm
; solid infill extrusion width = 0.45mm
; top infill extrusion width = 0.40mm
; support material extrusion width = 0.35mm
; first layer extrusion width = 0.42mm

M73 P0 R41
M201 X1250 Y1250 Z400 E5000 ; sets maximum accelerations, mm/sec^2
M203 X180 Y180 Z12 E80 ; sets maximum feedrates, mm / sec
M204 S1250 T1250 ; sets acceleration (S) and retract acceleration (R), mm/sec^2
M205 X8.00 Y8.00 Z2.00 E10.00 ; sets the jerk limits, mm/sec
M205 S0 T0 ; sets the minimum extruding and travel feed rate, mm/sec

; printing object FluoroCover.stl id:0 copy 0
; stop printing object FluoroCover.stl id:0 copy 0

;TYPE:Custom
G90 ; use absolute coordinates
M83 ; extruder relative mode
M104 S170 ; set extruder temp for bed leveling
M140 S60 ; set bed temp
M109 R170 ; wait for bed leveling temp
M190 S60 ; wait for bed temp
G28 ; home all without mesh bed level
G29 ; mesh bed leveling 
M104 S215 ; set extruder temp
G92 E0.0
G1 Y-2.0 X179 F2400
G1 Z3 F720
M109 S215 ; wait for extruder temp

; intro line
G1 X170 F1000
G1 Z0.2 F720
G1 X110.0 E8.0 F900
G1 X40.0 E10.0 F700
G92 E0.0

M221 S95 ; set flow
G21 ; set units to millimeters
G90 ; use absolute coordinates
M83 ; use relative distances for extrusion

M900 K0.2 ; Filament gcode LA 1.5
; ; Filament gcode LA 1.0




M107
;LAYER_CHANGE
;Z:0.2
;HEIGHT:0.2
G1 E-3.2 F4200
G1 Z.4 F9000
G1 X76.299 Y67.326
G1 Z.2
G1 E3.2 F2400
M204 S800
;TYPE:Skirt/Brim
;WIDTH:0.42
G1 F1200
G1 X77.142 Y66.582 E.03525
G1 X78.425 Y65.768 E.04764
G1 X80.19 Y65.094 E.05924
G1 X81.746 Y64.836 E.04945
G1 X82.966 Y64.84 E.03825
G1 X95.003 Y65.263 E.37764
G1 X101.51 Y65.643 E.20437
G1 X102.162 Y65.868 E.02163
G1 X102.718 Y66.247 E.0211
G1 X104.873 Y68.308 E.0935
G1 X105.412 Y69.162 E.03166
G1 X105.585 Y70.092 E.02966
G1 X105.579 Y110.086 E1.25398
G1 X105.369 Y110.942 E.02764
G1 X104.937 Y111.621 E.02523
G1 X102.707 Y113.764 E.09697
G1 X101.944 Y114.229 E.02802
G1 X101.181 Y114.402 E.02453
G1 X94.909 Y114.74 E.19694
G1 X82.266 Y114.65 E.39642
G1 X80.783 Y114.427 E.04702
G1 X78.952 Y113.717 E.06157
G1 X77.512 Y112.705 E.05518
G1 X76.458 Y111.572 E.04852
G1 X75.859 Y110.64 E.03474
G1 X75.372 Y109.568 E.03692
G1 X72.13 Y100.906 E.28999
G1 X71.275 Y97.521 E.10947
G1 X69.208 Y88.586 E.28755
G1 X69.1 Y86.979 E.0505
G1 X69.208 Y85.968 E.03188
G1 X69.584 Y84.59 E.04479
G1 X74.46 Y70.107 E.47915
G1 X75.135 Y68.792 E.04635
G1 X76.262 Y67.373 E.05682
M204 S1250
G1 E-2.24 F4200
;WIPE_START
G1 F7200
G1 X76.299 Y67.326 E-.03315
G1 X77.142 Y66.582 E-.62308
G1 X77.605 Y66.288 E-.30377
;WIPE_END
G1 Z.4 F9000
; printing object FluoroCover.stl id:0 copy 0
G1 X82.96 Y67.028
G1 Z.2
G1 E3.2 F2400
M204 S800
;TYPE:Support material
G1 F1200
G1 X84.304 Y67.326 E.04316
G1 X85.358 Y67.838 E.03674
G1 X86.297 Y68.521 E.03641
G1 X87.088 Y69.342 E.03575
G1 X87.723 Y70.268 E.0352
G1 X88.216 Y71.369 E.03782
G1 X85.944 Y73.782 E.10392
G1 X84.597 Y75.57 E.07019
G1 X82.929 Y78.363 E.102
M73 P1 R41
G1 X81.618 Y81.384 E.10326
G1 X80.714 Y84.516 E.10221
G1 X80.325 Y86.75 E.0711
G1 X80.117 Y90.003 E.1022
G1 X80.329 Y93.283 E.10306
G1 X80.706 Y95.447 E.06887
G1 X81.269 Y97.575 E.06902
G1 X82.011 Y99.642 E.06886
G1 X82.927 Y101.632 E.06869
G1 X84.015 Y103.545 E.069
G1 X85.261 Y105.352 E.06882
G1 X86.654 Y107.042 E.06867
G1 X87.977 Y108.399 E.05942
G1 X87.772 Y109.071 E.02203
G1 X87.225 Y110.067 E.03563
G1 X86.467 Y110.952 E.03654
G1 X85.567 Y111.644 E.0356
G1 X84.537 Y112.141 E.03586
G1 X83.426 Y112.418 E.0359
G1 X82.281 Y112.462 E.03593
G1 X81.149 Y112.269 E.03601
G1 X80.111 Y111.861 E.03497
G1 X79.489 Y111.473 E.02299
G1 X79.068 Y111.166 E.01634
G1 X78.299 Y110.389 E.03428
G1 X77.7 Y109.457 E.03474
G1 X77.264 Y108.299 E.0388
G1 X77.143 Y107.694 E.01935
G1 X77.096 Y106.553 E.03581
G1 X76.878 Y106.267 E.01128
G1 X76.397 Y105.232 E.03578
G1 X76.258 Y104.609 E.02001
G1 X75.636 Y103.792 E.0322
G1 X75.156 Y102.756 E.0358
G1 X74.909 Y101.637 E.03593
G1 X74.252 Y100.37 E.04475
G1 X74.005 Y99.255 E.03581
G1 X74.003 Y98.211 E.03273
G1 X73.407 Y97.026 E.04159
G1 X73.159 Y95.909 E.03588
G1 X73.215 Y94.504 E.04409
G1 X72.938 Y93.903 E.02075
G1 X72.694 Y92.79 E.03573
G1 X72.695 Y91.649 E.03578
G1 X72.83 Y91.036 E.01968
G1 X72.12 Y90.166 E.03521
G1 X71.658 Y89.264 E.03178
G1 X71.345 Y88.114 E.03737
G1 X71.288 Y86.979 E.03563
G1 X71.473 Y85.857 E.03565
G1 X71.658 Y85.288 E.01876
G1 X72.143 Y84.341 E.03336
G1 X72.837 Y83.495 E.03431
G1 X73.544 Y82.92 E.02857
G1 X73.788 Y82.395 E.01815
G1 X73.79 Y81.497 E.02816
G1 X74.038 Y80.382 E.03581
G1 X74.52 Y79.346 E.03583
G1 X74.713 Y79.094 E.00995
G1 X74.96 Y77.728 E.04352
G1 X75.441 Y76.692 E.03581
G1 X76.028 Y75.921 E.03038
G1 X76.261 Y74.998 E.02985
G1 X76.072 Y74.114 E.02834
G1 X76.031 Y72.984 E.03545
G1 X76.186 Y71.872 E.0352
G1 X76.534 Y70.806 E.03516
G1 X77.06 Y69.834 E.03465
G1 X77.748 Y68.967 E.0347
G1 X78.59 Y68.223 E.03523
G1 X79.553 Y67.644 E.03523
G1 X80.603 Y67.243 E.03524
G1 X81.739 Y67.025 E.03627
G1 X82.903 Y67.028 E.0365
M204 S1250
G1 E-2.24 F4200
;WIPE_START
G1 F7200
G1 X81.739 Y67.025 E-.64505
G1 X81.181 Y67.132 E-.31495
;WIPE_END
G1 Z.4 F9000
G1 X87.486 Y109.239
G1 Z.2
G1 E3.2 F2400
M204 S800
G1 F1200
G1 X87.486 Y108.395 E.02646
G1 X87.067 Y107.977 E.01856
G1 X87.067 Y109.649 E.05242
G1 X86.648 Y110.224 E.02231
G1 X86.648 Y107.531 E.08444
G1 X86.229 Y107.068 E.01958
G1 X86.229 Y110.706 E.11407
G1 X85.81 Y111.029 E.01659
G1 X85.81 Y106.582 E.13943
G1 X85.391 Y106.065 E.02087
G1 X85.391 Y111.351 E.16574
G1 X84.972 Y111.554 E.0146
G1 X84.972 Y105.533 E.18878
G1 X84.553 Y104.952 E.02246
G1 X84.553 Y111.757 E.21337
G1 X84.134 Y111.892 E.0138
G1 X84.134 Y104.344 E.23666
G1 X83.715 Y103.705 E.02396
G1 X83.715 Y111.996 E.25996
G1 X83.296 Y112.083 E.01342
G1 X83.296 Y103.005 E.28463
G1 X82.877 Y102.255 E.02694
G1 X82.877 Y112.099 E.30865
G1 X82.458 Y112.115 E.01315
G1 X82.458 Y101.446 E.33452
G1 X82.039 Y100.56 E.03073
G1 X82.039 Y112.076 E.36108
G1 X81.62 Y112.005 E.01332
G1 X81.62 Y99.572 E.38983
G1 X81.201 Y98.444 E.03773
G1 X81.201 Y111.925 E.42269
G1 X80.783 Y111.76 E.01409
M73 P1 R40
G1 X80.783 Y97.114 E.45922
G1 X80.364 Y95.468 E.05326
G1 X80.364 Y111.595 E.50565
G1 X79.945 Y111.357 E.01511
G1 X79.945 Y67.858 E1.36388
G1 X80.364 Y67.698 E.01406
G1 X80.364 Y84.532 E.52782
G1 X80.783 Y82.886 E.05326
G1 X80.783 Y67.554 E.48072
G1 X81.201 Y67.474 E.01334
G1 X81.201 Y81.556 E.44153
G1 X81.62 Y80.428 E.03773
G1 X81.62 Y67.393 E.4087
G1 X82.039 Y67.365 E.01317
G1 X82.039 Y79.44 E.3786
G1 X82.458 Y78.554 E.03073
G1 X82.458 Y67.366 E.35079
G1 X82.877 Y67.368 E.01314
G1 X82.877 Y77.745 E.32536
G1 X83.296 Y76.995 E.02694
G1 X83.296 Y67.425 E.30006
G1 X83.715 Y67.514 E.01343
G1 X83.715 Y76.295 E.27532
G1 X84.134 Y75.656 E.02396
G1 X84.134 Y67.631 E.25162
G1 X84.553 Y67.825 E.01448
G1 X84.553 Y75.048 E.22647
G1 X84.972 Y74.467 E.02246
G1 X84.972 Y68.028 E.20189
G1 X85.391 Y68.282 E.01536
G1 X85.391 Y73.935 E.17725
G1 X85.81 Y73.418 E.02087
G1 X85.81 Y68.587 E.15147
G1 X86.229 Y68.94 E.01718
G1 X86.229 Y72.932 E.12517
G1 X86.648 Y72.469 E.01958
G1 X86.648 Y69.374 E.09704
G1 X87.067 Y69.912 E.02138
G1 X87.067 Y72.023 E.06619
G1 X87.486 Y71.605 E.01856
G1 X87.486 Y70.223 E.04333
M204 S1250
G1 E-2.24 F4200
;WIPE_START
G1 F7200
G1 X87.486 Y71.605 E-.76586
G1 X87.238 Y71.853 E-.19414
;WIPE_END
G1 Z.4 F9000
G1 X79.526 Y111.289
G1 Z.2
M73 P2 R40
G1 E3.2 F2400
M204 S800
G1 F1200
G1 X79.526 Y68.056 E1.35554
G1 X79.107 Y68.308 E.01533
G1 X79.107 Y110.723 E1.32989
G1 X78.688 Y110.299 E.01869
G1 X78.688 Y68.59 E1.30776
G1 X78.269 Y68.959 E.01751
G1 X78.269 Y109.714 E1.27784
G1 X77.85 Y108.941 E.02757
G1 X77.85 Y69.384 E1.24028
G1 X77.431 Y69.913 E.02116
G1 X77.431 Y106.432 E1.14503
G1 X77.012 Y105.75 E.0251
G1 X77.012 Y70.637 E1.10094
G1 X76.593 Y71.72 E.03641
G1 X76.593 Y104.55 E1.02936
G1 X76.174 Y103.938 E.02326
G1 X76.174 Y76.29 E.86688
G1 X75.755 Y76.84 E.02168
G1 X75.755 Y103.24 E.82775
G1 X75.48 Y102.647 E.0205
G1 X75.336 Y101.996 E.02091
G1 X75.336 Y77.724 E.76103
G1 X75.052 Y78.88 E.03732
G1 X75.052 Y79.209 E.01032
G1 X74.917 Y79.386 E.00698
G1 X74.917 Y100.997 E.6776
G1 X74.575 Y100.261 E.02545
G1 X74.498 Y99.911 E.01124
G1 X74.498 Y80.198 E.61809
G1 X74.361 Y80.491 E.01014
G1 X74.129 Y81.534 E.0335
G1 X74.079 Y82.575 E.03268
G1 X74.079 Y97.664 E.4731
G1 X73.73 Y96.916 E.02588
G1 X73.66 Y96.6 E.01015
G1 X73.66 Y83.256 E.41839
G1 X73.241 Y83.598 E.01696
G1 X73.241 Y93.699 E.31671
G1 X73.034 Y92.754 E.03033
G1 X73.034 Y91.686 E.03349
G1 X73.199 Y90.938 E.02402
G1 X72.822 Y90.52 E.01765
G1 X72.822 Y84.049 E.20289
G1 X72.403 Y84.578 E.02116
M73 P3 R40
G1 X72.403 Y89.974 E.16919
G1 X71.984 Y89.156 E.02882
G1 X71.984 Y85.024 E.12956
M204 S1250
G1 E-2.24 F4200
;WIPE_START
G1 F7200
G1 X71.984 Y86.756 E-.96
;WIPE_END
G1 Z.4 F9000
G1 X95.391 Y81.718
G1 Z.2
G1 E3.2 F2400
M204 S800
G1 F1200
G1 X95.208 Y82.789 E.03407
G1 X88.78 Y82.788 E.20155
G1 X88.534 Y82.686 E.00835
G1 X88.411 Y82.451 E.00832
G1 X88.414 Y81.033 E.04446
G1 X88.534 Y80.814 E.00783
G1 X88.746 Y80.715 E.00734
G1 X95.217 Y80.711 E.20289
G1 X95.381 Y81.663 E.03029
M204 S1250
G1 X95.028 Y82.619 F9000
M204 S800
G1 F1200
G1 X95.028 Y81.611 E.03161
G1 X94.931 Y81.051 E.01782
G1 X94.609 Y81.051 E.0101
G1 X94.609 Y82.449 E.04383
G1 X94.19 Y82.449 E.01314
G1 X94.19 Y81.051 E.04383
G1 X93.771 Y81.051 E.01314
G1 X93.771 Y82.449 E.04383
G1 X93.352 Y82.449 E.01314
G1 X93.352 Y81.051 E.04383
G1 X92.933 Y81.051 E.01314
G1 X92.933 Y82.449 E.04383
G1 X92.514 Y82.449 E.01314
G1 X92.514 Y81.051 E.04383
G1 X92.095 Y81.051 E.01314
G1 X92.095 Y82.449 E.04383
G1 X91.676 Y82.449 E.01314
G1 X91.676 Y81.051 E.04383
G1 X91.257 Y81.051 E.01314
G1 X91.257 Y82.449 E.04383
G1 X90.838 Y82.449 E.01314
G1 X90.838 Y81.051 E.04383
G1 X90.419 Y81.051 E.01314
G1 X90.419 Y82.449 E.04383
G1 X90 Y82.449 E.01314
G1 X90 Y81.051 E.04383
G1 X89.581 Y81.051 E.01314
G1 X89.581 Y82.449 E.04383
G1 X89.162 Y82.449 E.01314
G1 X89.162 Y80.881 E.04916
M204 S1250
G1 E-2.24 F4200
;WIPE_START
G1 F7200
G1 X89.162 Y82.449 E-.86893
G1 X89.326 Y82.449 E-.09107
;WIPE_END
G1 Z.4 F9000
G1 X99.677 Y71.982
G1 Z.2
G1 E3.2 F2400
M204 S800
G1 F1200
G1 X100.45 Y72.169 E.02494
G1 X101.086 Y72.635 E.02472
G1 X101.495 Y73.309 E.02472
G1 X101.615 Y74.088 E.02471
G1 X101.427 Y74.854 E.02473
G1 X100.961 Y75.489 E.0247
G1 X100.287 Y75.898 E.02472
G1 X99.509 Y76.018 E.02468
G1 X98.743 Y75.831 E.02472
G1 X98.107 Y75.365 E.02472
G1 X97.699 Y74.691 E.0247
G1 X97.579 Y73.912 E.02471
G1 X97.766 Y73.146 E.02472
G1 X98.232 Y72.511 E.0247
G1 X98.906 Y72.102 E.02472
G1 X99.62 Y71.981 E.02271
M204 S1250
G1 X100.893 Y75.319 F9000
M204 S800
G1 F1200
G1 X100.893 Y72.932 E.07484
G1 X100.474 Y72.568 E.0174
G1 X100.474 Y75.432 E.0898
G1 X100.055 Y75.616 E.01435
G1 X100.055 Y72.384 E.10134
G1 X99.888 Y72.345 E.00538
G1 X99.636 Y72.32 E.00794
G1 X99.636 Y75.68 E.10535
G1 X99.217 Y75.637 E.01321
G1 X99.217 Y72.363 E.10265
G1 X98.799 Y72.522 E.01402
G1 X98.799 Y75.478 E.09268
G1 X98.38 Y75.158 E.01653
G1 X98.38 Y72.842 E.07262
G1 X98.106 Y73.224 E.01474
G1 X97.961 Y73.618 E.01316
G1 X97.961 Y74.864 E.03907
M204 S1250
G1 E-2.24 F4200
;WIPE_START
G1 F7200
G1 X97.961 Y73.618 E-.69049
G1 X98.106 Y73.224 E-.23266
G1 X98.145 Y73.17 E-.03685
;WIPE_END
G1 Z.4 F9000
G1 X95.602 Y97.212
G1 Z.2
G1 E3.2 F2400
M204 S800
G1 F1200
G1 X95.812 Y97.277 E.00689
G1 X95.983 Y98.267 E.0315
G1 X95.821 Y99.217 E.03022
G1 X95.697 Y99.275 E.00429
G1 X88.802 Y99.289 E.21619
G1 X88.555 Y99.204 E.00819
G1 X88.426 Y98.669 E.01726
G1 X88.426 Y97.879 E.02477
G1 X88.569 Y97.285 E.01916
G1 X88.696 Y97.225 E.0044
G1 X95.545 Y97.211 E.21475
M204 S1250
G1 X95.447 Y99.119 F9000
M204 S800
G1 F1200
G1 X95.447 Y97.551 E.04916
G1 X95.028 Y97.551 E.01314
G1 X95.028 Y98.949 E.04383
G1 X94.609 Y98.949 E.01314
G1 X94.609 Y97.551 E.04383
G1 X94.19 Y97.551 E.01314
G1 X94.19 Y98.949 E.04383
G1 X93.771 Y98.949 E.01314
G1 X93.771 Y97.551 E.04383
G1 X93.352 Y97.551 E.01314
G1 X93.352 Y98.949 E.04383
G1 X92.933 Y98.949 E.01314
G1 X92.933 Y97.551 E.04383
G1 X92.514 Y97.551 E.01314
G1 X92.514 Y98.949 E.04383
G1 X92.095 Y98.949 E.01314
G1 X92.095 Y97.551 E.04383
G1 X91.676 Y97.551 E.01314
G1 X91.676 Y98.949 E.04383
G1 X91.257 Y98.949 E.01314
G1 X91.257 Y97.551 E.04383
G1 X90.838 Y97.551 E.01314
G1 X90.838 Y98.949 E.04383
G1 X90.419 Y98.949 E.01314
G1 X90.419 Y97.551 E.04383
G1 X90 Y97.551 E.01314
G1 X90 Y98.949 E.04383
G1 X89.581 Y98.949 E.01314
G1 X89.581 Y97.551 E.04383
G1 X89.162 Y97.551 E.01314
G1 X89.162 Y99.119 E.04916
M204 S1250
G1 E-2.24 F4200
;WIPE_START
G1 F7200
G1 X89.162 Y97.551 E-.86893
G1 X89.326 Y97.551 E-.09107
;WIPE_END
G1 Z.4 F9000
G1 X99.677 Y103.982
G1 Z.2
G1 E3.2 F2400
M204 S800
G1 F1200
G1 X100.45 Y104.169 E.02494
G1 X101.086 Y104.635 E.02472
G1 X101.495 Y105.309 E.02472
G1 X101.615 Y106.088 E.02471
G1 X101.427 Y106.854 E.02473
G1 X100.961 Y107.489 E.0247
G1 X100.287 Y107.898 E.02472
G1 X99.509 Y108.018 E.02468
G1 X98.743 Y107.831 E.02472
G1 X98.107 Y107.365 E.02472
G1 X97.699 Y106.691 E.0247
G1 X97.579 Y105.912 E.02471
G1 X97.766 Y105.146 E.02472
G1 X98.232 Y104.511 E.0247
G1 X98.906 Y104.102 E.02472
G1 X99.62 Y103.981 E.02271
M204 S1250
G1 X100.893 Y107.319 F9000
M204 S800
G1 F1200
G1 X100.893 Y104.932 E.07484
G1 X100.474 Y104.568 E.0174
G1 X100.474 Y107.433 E.08983
G1 X100.055 Y107.616 E.01434
G1 X100.055 Y104.384 E.10134
G1 X99.888 Y104.345 E.00538
G1 X99.636 Y104.32 E.00794
G1 X99.636 Y107.68 E.10535
G1 X99.217 Y107.637 E.01321
G1 X99.217 Y104.363 E.10265
G1 X98.799 Y104.522 E.01402
G1 X98.799 Y107.478 E.09268
G1 X98.38 Y107.158 E.01653
G1 X98.38 Y104.842 E.07262
G1 X98.106 Y105.224 E.01474
G1 X97.961 Y105.618 E.01316
G1 X97.961 Y106.864 E.03907
M204 S1250
G1 E-2.24 F4200
;WIPE_START
G1 F7200
G1 X97.961 Y105.618 E-.69049
G1 X98.106 Y105.224 E-.23266
G1 X98.145 Y105.17 E-.03685
;WIPE_END
G1 Z.4 F9000
G1 X87.247 Y79.811
G1 Z.2
G1 E3.2 F2400
M204 S800
;TYPE:Perimeter
;WIDTH:0.419999
G1 F1200
G1 X87.3 Y79.739 E.0028
G1 X87.596 Y79.474 E.01246
G1 X88.064 Y79.204 E.01694
G1 X88.608 Y79.086 E.01745
G1 X89.206 Y79.067 E.01876
G1 X95.6 Y79.067 E.20048
G1 X95.96 Y79.1 E.01133
G1 X96.583 Y79.336 E.02089
G1 X96.859 Y79.512 E.01026
G1 X97.215 Y79.875 E.01594
G1 X97.45 Y80.274 E.01452
G1 X97.598 Y80.76 E.01593
G1 X97.629 Y81.097 E.01061
G1 X97.629 Y82.403 E.04095
G1 X97.549 Y82.938 E.01696
G1 X97.447 Y83.227 E.00961
G1 X97.128 Y83.73 E.01868
G1 X96.714 Y84.092 E.01724
G1 X96.296 Y84.309 E.01477
G1 X95.778 Y84.425 E.01664
G1 X88.794 Y84.433 E.21898
G1 X88.33 Y84.375 E.01466
G1 X87.811 Y84.164 E.01757
G1 X87.527 Y83.982 E.01058
G1 X87.233 Y83.694 E.0129
G1 X86.99 Y83.325 E.01385
G1 X86.828 Y82.891 E.01452
G1 X86.765 Y82.446 E.01409
G1 X86.768 Y81.003 E.04524
G1 X86.898 Y80.395 E.01949
G1 X87.049 Y80.082 E.0109
G1 X87.212 Y79.859 E.00866
M204 S1250
G1 X87.538 Y80.051 F9000
M204 S800
G1 F1200
G1 X87.604 Y79.962 E.00347
G1 X88.076 Y79.616 E.01835
G1 X88.268 Y79.538 E.0065
G1 X88.793 Y79.444 E.01672
G1 X95.6 Y79.444 E.21343
G1 X96.002 Y79.504 E.01274
G1 X96.483 Y79.705 E.01635
G1 X96.814 Y79.982 E.01353
G1 X97.077 Y80.36 E.01444
G1 X97.252 Y80.89 E.0175
G1 X97.252 Y82.403 E.04744
G1 X97.178 Y82.872 E.01489
G1 X96.958 Y83.336 E.0161
G1 X96.597 Y83.719 E.0165
G1 X96.092 Y83.977 E.01778
G1 X95.692 Y84.052 E.01276
G1 X88.793 Y84.056 E.21631
G1 X88.391 Y83.996 E.01274
G1 X87.887 Y83.782 E.01717
G1 X87.537 Y83.471 E.01468
G1 X87.335 Y83.173 E.01129
G1 X87.2 Y82.826 E.01167
G1 X87.142 Y82.447 E.01202
G1 X87.145 Y81.004 E.04524
G1 X87.262 Y80.493 E.01644
G1 X87.353 Y80.305 E.00655
G1 X87.503 Y80.1 E.00796
M204 S1250
G1 X87.835 Y80.297 F9000
M204 S800
;TYPE:External perimeter
G1 F1200
G1 X87.959 Y80.137 E.00635
G1 X88.342 Y79.908 E.01399
G1 X88.793 Y79.821 E.0144
G1 X95.6 Y79.821 E.21343
G1 X95.858 Y79.852 E.00815
G1 X96.336 Y80.056 E.0163
G1 X96.588 Y80.294 E.01087
G1 X96.782 Y80.645 E.01257
G1 X96.875 Y80.923 E.00919
G1 X96.875 Y82.403 E.0464
G1 X96.786 Y82.864 E.01472
G1 X96.595 Y83.197 E.01204
