; generated by PrusaSlicer 2.9.4 on 2026-05-12 at 20:59:45 UTC


;
;

;
;
; 

; external perimeters extrusion width = 0.45mm
; perimeters extrusion width = 0.45mm
; infill extrusion width = 0.45mm
; solid infill extrusion width = 0.45mm
; top infill extrusion width = 0.40mm
; support material extrusion width = 0.35mm
; first layer extrusion width = 0.42mm

M73 P0 R3
M201 X1250 Y1250 Z400 E5000 ; sets maximum accelerations, mm/sec^2
M203 X180 Y180 Z12 E80 ; sets maximum feedrates, mm / sec
M204 S1250 T1250 ; sets acceleration (S) and retract acceleration (R), mm/sec^2
M205 X8.00 Y8.00 Z2.00 E10.00 ; sets the jerk limits, mm/sec
M205 S0 T0 ; sets the minimum extruding and travel feed rate, mm/sec

; printing object retainer.stl id:0 copy 0
; stop printing object retainer.stl id:0 copy 0

;TYPE:Custom
G90 ; use absolute coordinates
M83 ; extruder relative mode
M104 S170 ; set extruder temp for bed leveling
M140 S60 ; set bed temp
M109 R170 ; wait for bed leveling temp
M190 S60 ; wait for bed temp
G28 ; home all without mesh bed level
G29 ; mesh bed leveling 
M104 S215 ; set extruder temp
G92 E0.0
G1 Y-2.0 X179 F2400
G1 Z3 F720
M73 P1 R3
M109 S215 ; wait for extruder temp

; intro line
G1 X170 F1000
M73 P2 R3
G1 Z0.2 F720
G1 X110.0 E8.0 F900
G1 X40.0 E10.0 F700
M73 P4 R3
G92 E0.0

M221 S95 ; set flow
G21 ; set units to millimeters
G90 ; use absolute coordinates
M83 ; use relative distances for extrusion

M900 K0.2 ; Filament gcode LA 1.5
; ; Filament gcode LA 1.0




M107
;LAYER_CHANGE
;Z:0.1
;HEIGHT:0.1
G1 E-3.2 F4200
M73 P6 R3
G1 Z.3 F9000
G1 X80.956 Y81.43
G1 Z.1
M73 P7 R3
G1 E3.2 F2400
M204 S800
;TYPE:Skirt/Brim
;WIDTH:0.42
G1 F1200
G1 X81.91 Y80.498 E.0221
G1 X82.918 Y79.818 E.02015
G1 X84.138 Y79.283 E.02207
G1 X85.32 Y79.002 E.02013
G1 X86.65 Y78.93 E.02207
G1 X87.856 Y79.084 E.02014
G1 X89.126 Y79.486 E.02207
G1 X90.202 Y80.055 E.02017
G1 X91.385 Y80.992 E.02501
G1 X95.421 Y84.52 E.08882
G1 X96.189 Y85.323 E.01841
G1 X96.999 Y86.534 E.02414
G1 X97.595 Y88.022 E.02656
G1 X97.843 Y89.432 E.02372
G1 X97.792 Y91.035 E.02657
G1 X97.546 Y92.144 E.01882
G1 X97.144 Y93.18 E.01841
G1 X96.672 Y94.02 E.01597
G1 X95.98 Y94.921 E.01882
G1 X95.202 Y95.669 E.01788
G1 X89.592 Y100.224 E.11974
G1 X88.509 Y100.793 E.02027
M73 P8 R3
G1 X87.23 Y101.193 E.0222
G1 X86.016 Y101.342 E.02027
G1 X84.679 Y101.263 E.02219
G1 X83.491 Y100.972 E.02027
G1 X82.269 Y100.425 E.02218
G1 X81.263 Y99.733 E.02023
G1 X80.315 Y98.79 E.02216
G1 X79.618 Y97.787 E.02024
G1 X79.13 Y96.713 E.01955
G1 X78.754 Y95.195 E.02591
G1 X78.702 Y93.919 E.02116
G1 X79.351 Y85.088 E.14672
G1 X79.481 Y84.351 E.0124
G1 X79.747 Y83.507 E.01466
G1 X80.251 Y82.425 E.01978
G1 X80.921 Y81.479 E.01921
M204 S1250
G1 X81.234 Y81.715 F9000
M204 S800
G1 F1200
G1 X82.188 Y80.783 E.0221
G1 X83.078 Y80.183 E.01778
G1 X84.298 Y79.648 E.02207
G1 X85.342 Y79.4 E.01778
G1 X86.671 Y79.328 E.02205
G1 X87.736 Y79.464 E.01779
G1 X89.006 Y79.866 E.02207
G1 X89.956 Y80.368 E.0178
G1 X91.123 Y81.292 E.02466
G1 X95.024 Y84.702 E.08585
G1 X95.795 Y85.472 E.01805
M73 P9 R3
G1 X96.649 Y86.725 E.02512
G1 X97.212 Y88.134 E.02514
G1 X97.446 Y89.458 E.02228
G1 X97.398 Y90.974 E.02513
G1 X97.164 Y92.032 E.01795
G1 X96.786 Y93.003 E.01726
G1 X96.34 Y93.798 E.0151
G1 X95.68 Y94.658 E.01796
G1 X94.95 Y95.361 E.01679
G1 X89.346 Y99.91 E.1196
G1 X88.39 Y100.413 E.0179
G1 X87.111 Y100.813 E.0222
G1 X86.04 Y100.944 E.01788
G1 X84.702 Y100.865 E.02221
G1 X83.654 Y100.609 E.01788
G1 X82.432 Y100.061 E.02219
G1 X81.544 Y99.451 E.01785
G1 X80.596 Y98.507 E.02217
G1 X79.981 Y97.622 E.01786
G1 X79.493 Y96.548 E.01955
G1 X79.146 Y95.126 E.02425
G1 X79.1 Y93.919 E.02001
G1 X79.743 Y85.157 E.14557
G1 X80.108 Y83.675 E.02529
M73 P10 R3
G1 X80.612 Y82.593 E.01978
G1 X81.199 Y81.764 E.01683
M204 S1250
G1 X81.513 Y82 F9000
M204 S800
G1 F1200
G1 X82.467 Y81.068 E.0221
G1 X83.239 Y80.548 E.01542
G1 X84.458 Y80.013 E.02206
G1 X85.363 Y79.797 E.01542
G1 X86.693 Y79.726 E.02207
G1 X87.615 Y79.844 E.0154
G1 X88.886 Y80.246 E.02209
G1 X89.709 Y80.681 E.01542
G1 X90.861 Y81.593 E.02435
G1 X94.895 Y85.119 E.08878
G1 X95.495 Y85.735 E.01425
G1 X96.216 Y86.765 E.02083
G1 X96.781 Y88.079 E.0237
G1 X97.048 Y89.484 E.0237
G1 X97.004 Y90.914 E.02371
G1 X96.781 Y91.921 E.01709
G1 X96.429 Y92.827 E.01611
G1 X96.009 Y93.577 E.01424
G1 X95.381 Y94.395 E.01709
G1 X94.697 Y95.052 E.01571
G1 X89.1 Y99.597 E.11946
G1 X88.271 Y100.033 E.01552
G1 X86.992 Y100.433 E.0222
G1 X86.063 Y100.546 E.01551
G1 X84.726 Y100.467 E.02219
G1 X83.817 Y100.245 E.0155
G1 X82.595 Y99.698 E.02218
G1 X81.825 Y99.168 E.01549
M73 P11 R3
G1 X80.877 Y98.225 E.02216
G1 X80.344 Y97.458 E.01548
G1 X79.856 Y96.383 E.01956
G1 X79.663 Y95.76 E.01081
G1 X79.499 Y94.607 E.0193
G1 X79.506 Y93.73 E.01453
G1 X80.136 Y85.226 E.14129
G1 X80.469 Y83.843 E.02357
G1 X80.973 Y82.762 E.01976
G1 X81.478 Y82.049 E.01448
M204 S1250
G1 X81.791 Y82.286 F9000
M204 S800
G1 F1200
G1 X82.745 Y81.353 E.02211
G1 X83.399 Y80.913 E.01306
G1 X84.618 Y80.378 E.02206
G1 X85.384 Y80.195 E.01305
G1 X86.714 Y80.124 E.02207
G1 X87.495 Y80.224 E.01305
G1 X88.766 Y80.626 E.02209
G1 X89.463 Y80.995 E.01307
G1 X90.599 Y81.893 E.02399
G1 X94.633 Y85.419 E.08878
G1 X95.195 Y85.998 E.01337
G1 X95.867 Y86.957 E.0194
G1 X96.398 Y88.191 E.02226
G1 X96.65 Y89.51 E.02225
G1 X96.61 Y90.853 E.02226
G1 X96.398 Y91.809 E.01623
G1 X96.071 Y92.651 E.01497
G1 X95.581 Y93.499 E.01623
G1 X95.016 Y94.203 E.01496
G1 X94.445 Y94.744 E.01303
G1 X88.853 Y99.283 E.11934
M73 P12 R3
G1 X88.152 Y99.652 E.01313
G1 X86.873 Y100.052 E.0222
G1 X86.087 Y100.149 E.01312
G1 X84.749 Y100.069 E.02221
G1 X83.98 Y99.881 E.01312
G1 X82.758 Y99.334 E.02218
G1 X82.106 Y98.886 E.01311
G1 X81.158 Y97.942 E.02217
G1 X80.707 Y97.293 E.0131
G1 X80.055 Y95.691 E.02866
G1 X79.898 Y94.606 E.01816
G1 X79.903 Y93.758 E.01405
G1 X80.528 Y85.295 E.14061
G1 X80.83 Y84.012 E.02184
G1 X81.334 Y82.93 E.01978
G1 X81.756 Y82.334 E.0121
M204 S1250
G1 E-2.24 F4200
;WIPE_START
G1 F7200
G1 X81.791 Y82.286 E-.03292
G1 X82.745 Y81.353 E-.73948
G1 X83.026 Y81.164 E-.1876
;WIPE_END
G1 Z.3 F9000
; printing object retainer.stl id:0 copy 0
G1 X88.102 Y82.723
G1 Z.1
G1 E3.2 F2400
M204 S800
;TYPE:Support material
G1 F1200
G1 X89.151 Y83.549 E.02212
G1 X89.842 Y84.695 E.02217
G1 X90.031 Y85.726 E.01737
G1 X88.121 Y85.752 E.03165
G1 X87.734 Y85.98 E.00744
M73 P13 R3
G1 X87.575 Y86.36 E.00683
G1 X87.581 Y93.693 E.1215
G1 X87.735 Y94.021 E.006
G1 X88.059 Y94.23 E.00639
G1 X89.482 Y94.274 E.02359
G1 X89.243 Y95.579 E.02198
G1 X88.55 Y96.726 E.0222
G1 X87.496 Y97.553 E.0222
G1 X86.217 Y97.953 E.0222
G1 X84.879 Y97.874 E.02221
G1 X83.657 Y97.327 E.02218
G1 X82.709 Y96.383 E.02217
G1 X82.221 Y95.309 E.01955
G1 X82.097 Y94.605 E.01184
G1 X82.097 Y93.917 E.0114
G1 X82.222 Y93.209 E.01191
G1 X82.79 Y92.054 E.02133
G1 X83.088 Y90.558 E.02527
G1 X82.802 Y89.123 E.02424
G1 X83.093 Y87.66 E.02472
G1 X82.823 Y87.075 E.01068
G1 X82.695 Y86.349 E.01221
G1 X82.694 Y85.677 E.01113
G1 X82.824 Y84.94 E.0124
G1 X83.328 Y83.859 E.01976
G1 X84.282 Y82.927 E.0221
G1 X85.502 Y82.392 E.02207
G1 X86.831 Y82.32 E.02205
G1 X88.045 Y82.705 E.0211
M204 S1250
G1 X89.557 Y85.547 F9000
M204 S800
G1 F1200
G1 X89.501 Y84.824 E.01202
G1 X89.114 Y84.182 E.01242
G1 X89.114 Y85.368 E.01965
G1 X88.672 Y85.368 E.00732
G1 X88.672 Y83.627 E.02885
G1 X88.229 Y83.279 E.00933
M73 P14 R3
G1 X88.229 Y85.372 E.03468
G1 X87.786 Y85.496 E.00762
G1 X87.786 Y82.999 E.04137
G1 X87.343 Y82.859 E.0077
G1 X87.343 Y97.217 E.2379
G1 X86.9 Y97.364 E.00773
G1 X86.9 Y82.718 E.24267
G1 X86.457 Y82.7 E.00735
G1 X86.457 Y97.502 E.24526
G1 X86.015 Y97.582 E.00744
M73 P15 R3
G1 X86.015 Y82.723 E.2462
G1 X85.572 Y82.753 E.00736
G1 X85.572 Y97.556 E.24528
G1 X85.129 Y97.53 E.00735
G1 X85.129 Y82.947 E.24163
G1 X84.686 Y83.141 E.00801
M73 P16 R3
G1 X84.686 Y97.395 E.23618
G1 X84.243 Y97.196 E.00805
G1 X84.243 Y83.466 E.2275
G1 X83.8 Y83.899 E.01026
G1 X83.8 Y96.963 E.21646
G1 X83.358 Y96.523 E.01033
M73 P17 R3
G1 X83.358 Y84.22 E.20385
M204 S1250
G1 X88.672 Y96.178 F9000
M204 S800
G1 F1200
G1 X88.672 Y94.632 E.02562
G1 X88.229 Y94.628 E.00734
G1 X88.229 Y96.522 E.03138
G1 X87.786 Y96.87 E.00933
G1 X87.786 Y94.298 E.04262
M204 S1250
G1 X82.915 Y96.335 F9000
M204 S800
G1 F1200
G1 X82.915 Y92.553 E.06267
G1 X82.567 Y93.316 E.0139
G1 X82.472 Y93.854 E.00905
G1 X82.472 Y95.428 E.02608
M204 S1250
G1 E-2.24 F4200
;WIPE_START
G1 F7200
G1 X82.472 Y93.854 E-.87226
G1 X82.499 Y93.698 E-.08774
;WIPE_END
G1 Z.3 F9000
G1 X89.429 Y89.023
G1 Z.1
M73 P18 R3
G1 E3.2 F2400
M204 S800
;TYPE:External perimeter
;WIDTH:0.419999
G1 F1200
G1 X89.849 Y88.697 E.00881
G1 X90.398 Y88.547 E.00943
G1 X90.961 Y88.618 E.0094
G1 X91.455 Y88.9 E.00943
G1 X91.803 Y89.349 E.00941
G1 X91.953 Y89.897 E.00941
G1 X91.882 Y90.461 E.00942
G1 X91.6 Y90.955 E.00943
G1 X91.151 Y91.303 E.00941
G1 X90.602 Y91.453 E.00943
G1 X90.038 Y91.382 E.00942
G1 X89.545 Y91.1 E.00941
G1 X89.197 Y90.651 E.00941
;WIDTH:0.462866
G1 X89.101 Y90.382 E.00524
;WIDTH:0.505733
G1 X89.005 Y90.113 E.00575
;WIDTH:0.550177
G1 X89.054 Y89.529 E.01288
G1 X89.169 Y89.367 E.00437
;WIDTH:0.506785
G1 X89.285 Y89.206 E.004
;WIDTH:0.463392
G1 X89.386 Y89.064 E.0032
M204 S1250
G1 X89.292 Y87.77 F9000
M204 S800
;TYPE:Perimeter
;WIDTH:0.484045
G1 F1200
G1 X89.292 Y87.447 E.00621
G1 X89.673 Y87.436 E.00733
;WIDTH:0.461316
G1 X90.125 Y87.419 E.00827
;WIDTH:0.424099
G1 X90.576 Y87.402 E.00756
;WIDTH:0.386882
G1 X91.135 Y87.486 E.00859
;WIDTH:0.38657
G1 X91.598 Y87.655 E.00748
;WIDTH:0.383654
G1 X92.053 Y87.93 E.00801
;WIDTH:0.387143
G1 X92.411 Y88.24 E.0072
G1 X92.727 Y88.672 E.00814
;WIDTH:0.386189
G1 X92.899 Y88.999 E.0056
;WIDTH:0.391399
G1 X93.057 Y89.57 E.00911
G1 X93.093 Y90.151 E.00895
;WIDTH:0.389608
G1 X92.959 Y90.805 E.01022
;WIDTH:0.394846
G1 X92.749 Y91.292 E.00823
G1 X92.402 Y91.769 E.00916
;WIDTH:0.394253
G1 X91.993 Y92.12 E.00835
G1 X91.701 Y92.3 E.00532
;WIDTH:0.394956
G1 X91.156 Y92.51 E.00907
G1 X90.474 Y92.603 E.01069
;WIDTH:0.429148
G1 X89.884 Y92.579 E.01001
;WIDTH:0.456348
G1 X89.588 Y92.564 E.00536
;WIDTH:0.483548
G1 X89.292 Y92.55 E.00569
G1 X89.292 Y91.916 E.01218
G1 X89.535 Y92.064 E.00547
G1 X89.726 Y92.119 E.00382
;WIDTH:0.456348
G1 X89.916 Y92.174 E.00358
;WIDTH:0.429148
G1 X90.598 Y92.237 E.01161
;WIDTH:0.394956
G1 X91.079 Y92.144 E.00761
G1 X91.521 Y91.989 E.00727
;WIDTH:0.380943
G1 X92.007 Y91.639 E.00895
;WIDTH:0.380664
G1 X92.265 Y91.358 E.0057
;WIDTH:0.384308
G1 X92.562 Y90.865 E.00868
;WIDTH:0.395336
G1 X92.691 Y90.363 E.00806
G1 X92.731 Y89.881 E.00752
;WIDTH:0.382605
G1 X92.592 Y89.235 E.00992
;WIDTH:0.386698
G1 X92.458 Y88.924 E.00514
G1 X92.142 Y88.491 E.00814
G1 X91.961 Y88.305 E.00394
;WIDTH:0.391425
G1 X91.516 Y88.022 E.00811
G1 X91.096 Y87.849 E.00699
;WIDTH:0.386674
G1 X90.594 Y87.772 E.00771
;WIDTH:0.401674
G1 X90.21 Y87.781 E.00607
;WIDTH:0.44286
G1 X89.908 Y87.838 E.00538
;WIDTH:0.484045
G1 X89.605 Y87.895 E.00593
G1 X89.292 Y88.077 E.00696
G1 X89.292 Y87.83 E.00475
M204 S1250
G1 X88.862 Y87.171 F9000
M204 S800
;WIDTH:0.419999
G1 F1200
G1 X88.862 Y87.016 E.00257
G1 X90.592 Y87.018 E.02866
G1 X91.273 Y87.121 E.01141
G1 X91.877 Y87.355 E.01073
G1 X92.306 Y87.642 E.00855
G1 X92.69 Y87.975 E.00842
G1 X93.095 Y88.53 E.01138
G1 X93.306 Y89.035 E.00907
G1 X93.446 Y89.632 E.01016
G1 X93.474 Y90.192 E.00929
G1 X93.445 Y90.454 E.00437
G1 X93.364 Y90.764 E.00531
G1 X93.186 Y91.285 E.00912
G1 X92.869 Y91.782 E.00977
M73 P19 R3
G1 X92.557 Y92.138 E.00784
G1 X92.156 Y92.475 E.00868
G1 X91.714 Y92.72 E.00837
G1 X91.223 Y92.89 E.00861
G1 X90.486 Y92.985 E.01231
G1 X88.862 Y92.978 E.02691
G1 X88.862 Y90.857 E.03514
G1 X89.166 Y91.283 E.00867
G1 X89.338 Y91.441 E.00387
G1 X89.81 Y91.724 E.00912
G1 X90.464 Y91.85 E.01104
G1 X90.659 Y91.848 E.00323
G1 X91.175 Y91.723 E.0088
G1 X91.386 Y91.625 E.00385
G1 X91.912 Y91.205 E.01115
G1 X92.196 Y90.741 E.00901
G1 X92.276 Y90.522 E.00386
G1 X92.356 Y89.906 E.01029
G1 X92.223 Y89.325 E.00988
G1 X92.125 Y89.114 E.00385
G1 X91.765 Y88.638 E.00989
G1 X91.317 Y88.35 E.00882
G1 X91.031 Y88.226 E.00517
G1 X90.536 Y88.15 E.0083
G1 X90.303 Y88.16 E.00386
G1 X89.757 Y88.298 E.00933
G1 X89.217 Y88.666 E.01083
G1 X89.059 Y88.838 E.00387
G1 X88.862 Y89.164 E.00631
G1 X88.862 Y87.231 E.03203
M204 S1250
G1 X88.463 Y86.636 F9000
M204 S800
;TYPE:External perimeter
G1 F1200
G1 X88.463 Y86.617 E.00031
G1 X90.622 Y86.619 E.03577
G1 X91.376 Y86.733 E.01264
G1 X92.062 Y87 E.0122
G1 X92.608 Y87.365 E.01088
G1 X92.991 Y87.711 E.00855
G1 X93.388 Y88.255 E.01116
G1 X93.624 Y88.701 E.00836
G1 X93.801 Y89.311 E.01052
G1 X93.844 Y89.606 E.00494
G1 X93.87 Y90.236 E.01045
G1 X93.832 Y90.583 E.00578
G1 X93.643 Y91.229 E.01115
G1 X93.432 Y91.688 E.00837
G1 X92.994 Y92.285 E.01227
G1 X92.438 Y92.772 E.01225
G1 X91.93 Y93.066 E.00973
G1 X91.455 Y93.238 E.00837
G1 X90.998 Y93.334 E.00774
G1 X90.494 Y93.384 E.00839
G1 X88.463 Y93.375 E.03365
G1 X88.463 Y90.665 E.0449
;WIDTH:0.464866
G1 X88.486 Y90.36 E.00564
;WIDTH:0.509732
G1 X88.508 Y90.055 E.00621
;WIDTH:0.550177
G1 X88.528 Y89.489 E.01245
G1 X88.506 Y89.253 E.00521
;WIDTH:0.506785
G1 X88.485 Y89.018 E.00476
;WIDTH:0.463392
G1 X88.463 Y88.783 E.00434
;WIDTH:0.419999
G1 X88.463 Y86.696 E.03458
M204 S1250
M106 S84.15
;LAYER_CHANGE
;Z:0.2
;HEIGHT:0.1
;BEFORE_LAYER_CHANGE
G92 E0.0
;0.2


G1 E-2.24 F4200
;WIPE_START
G1 F7200
G1 X88.463 Y86.636 E-.03325
G1 X88.463 Y86.617 E-.01053
G1 X90.116 Y86.619 E-.91622
;WIPE_END
G1 Z.2 F9000
;AFTER_LAYER_CHANGE
;0.2
; stop printing object retainer.stl id:0 copy 0
G1 Z.4
M73 P20 R3
G1 X92.555 Y82.015
G1 Z.2
G1 E3.2 F2400
;TYPE:Skirt/Brim
;WIDTH:0.42
G1 F2323
G1 X95.421 Y84.52 E.06307
G1 X96.189 Y85.323 E.01841
G1 X96.999 Y86.534 E.02414
G1 X97.595 Y88.022 E.02656
G1 X97.843 Y89.432 E.02372
G1 X97.792 Y91.035 E.02657
G1 X97.546 Y92.144 E.01882
G1 X97.144 Y93.18 E.01841
G1 X96.672 Y94.02 E.01597
G1 X95.98 Y94.921 E.01882
G1 X95.202 Y95.669 E.01788
G1 X89.592 Y100.224 E.11974
G1 X88.509 Y100.793 E.02027
G1 X87.23 Y101.193 E.0222
G1 X86.016 Y101.342 E.02027
G1 X84.679 Y101.263 E.02219
G1 X83.491 Y100.972 E.02027
G1 X82.269 Y100.425 E.02218
G1 X81.263 Y99.733 E.02023
G1 X80.315 Y98.79 E.02216
G1 X79.618 Y97.787 E.02024
G1 X79.13 Y96.713 E.01955
G1 X78.754 Y95.195 E.02591
G1 X78.702 Y93.919 E.02116
G1 X79.351 Y85.088 E.14672
G1 X79.481 Y84.351 E.0124
G1 X79.747 Y83.507 E.01466
G1 X80.251 Y82.425 E.01978
G1 X80.956 Y81.43 E.02021
G1 X81.91 Y80.498 E.0221
G1 X82.918 Y79.818 E.02015
G1 X84.138 Y79.283 E.02207
G1 X85.32 Y79.002 E.02013
G1 X86.65 Y78.93 E.02207
G1 X87.856 Y79.084 E.02014
G1 X89.126 Y79.486 E.02207
G1 X90.202 Y80.055 E.02017
G1 X91.385 Y80.992 E.02501
G1 X92.51 Y81.975 E.02475
G1 X92.248 Y82.275 F9000
G1 F2323
G1 X95.024 Y84.702 E.0611
G1 X95.795 Y85.472 E.01805
G1 X96.649 Y86.725 E.02512
G1 X97.212 Y88.134 E.02514
G1 X97.446 Y89.458 E.02228
G1 X97.398 Y90.974 E.02513
G1 X97.164 Y92.032 E.01795
M73 P21 R3
G1 X96.786 Y93.003 E.01726
G1 X96.34 Y93.798 E.0151
G1 X95.68 Y94.658 E.01796
G1 X94.95 Y95.361 E.01679
G1 X89.346 Y99.91 E.1196
G1 X88.39 Y100.413 E.0179
G1 X87.111 Y100.813 E.0222
M73 P21 R2
G1 X86.04 Y100.944 E.01788
G1 X84.702 Y100.865 E.02221
G1 X83.654 Y100.609 E.01788
G1 X82.432 Y100.061 E.02219
G1 X81.544 Y99.451 E.01785
G1 X80.596 Y98.507 E.02217
G1 X79.981 Y97.622 E.01786
G1 X79.493 Y96.548 E.01955
G1 X79.146 Y95.126 E.02425
G1 X79.1 Y93.919 E.02001
G1 X79.743 Y85.157 E.14557
G1 X80.108 Y83.675 E.02529
G1 X80.612 Y82.593 E.01978
G1 X81.234 Y81.715 E.01783
G1 X82.188 Y80.783 E.0221
G1 X83.078 Y80.183 E.01778
G1 X84.298 Y79.648 E.02207
G1 X85.342 Y79.4 E.01778
G1 X86.671 Y79.328 E.02205
G1 X87.736 Y79.464 E.01779
G1 X89.006 Y79.866 E.02207
G1 X89.956 Y80.368 E.0178
G1 X91.123 Y81.292 E.02466
G1 X92.202 Y82.236 E.02375
G1 X91.94 Y82.536 F9000
G1 F2323
G1 X94.895 Y85.119 E.06503
G1 X95.495 Y85.735 E.01425
G1 X96.216 Y86.765 E.02083
G1 X96.781 Y88.079 E.0237
G1 X97.048 Y89.484 E.0237
G1 X97.004 Y90.914 E.02371
G1 X96.781 Y91.921 E.01709
G1 X96.429 Y92.827 E.01611
G1 X96.009 Y93.577 E.01424
G1 X95.381 Y94.395 E.01709
G1 X94.697 Y95.052 E.01571
G1 X89.1 Y99.597 E.11946
